icons/syringe-fill.svg

<svg xmlns="http://www.w3.org/2000/svg" width="24" height="24" fill="none"><g clip-path="url(#a)"><g><path fill="#121212" d="M21.678 7.98002L20.263 9.39302L18.143 7.27302L16.021 9.39302L19.556 12.929L18.142 14.343L17.435 13.636L11.071 20H5.41403L3.29303 22.121L1.87903 20.707L4.00003 18.586V12.929L10.364 6.56502L9.65703 5.85802L11.071 4.44402L14.607 7.97902L16.727 5.85802L14.607 3.73702L16.021 2.32202L21.678 7.97902V7.98002ZM9.65703 14.342L6.82803 11.514L5.41403 12.928L8.24303 15.756L9.65703 14.342ZM12.485 11.514L9.65703 8.68602L8.24303 10.101L11.071 12.929L12.485 11.515V11.514Z"/></g></g><defs><clipPath id="a"><rect width="24" height="24" fill="white"/></clipPath></defs></svg>

<svg width="24" height="24" fill="none" xmlns="http://www.w3.org/2000/svg"><g clip-path="url(#a)"><path d="m21.678 7.98-1.415 1.413-2.12-2.12-2.122 2.12 3.535 3.536-1.414 1.414-.707-.707L11.071 20H5.414l-2.121 2.121-1.414-1.414L4 18.586v-5.657l6.364-6.364-.707-.707 1.414-1.414 3.536 3.535 2.12-2.121-2.12-2.121 1.414-1.415 5.657 5.657v.001ZM9.657 14.342l-2.829-2.828-1.414 1.414 2.829 2.828 1.414-1.414Zm2.828-2.828L9.657 8.686l-1.414 1.415 2.828 2.828 1.414-1.414v-.001Z" /></g><defs><clipPath id="a"><path fill="#fff" d="M0 0h24v24H0z"/></clipPath></defs></svg>
